modules/themify-icons/icons/paragraph.svg

<?xml version="1.0" encoding="utf-8"?>
<!-- Generated by IcoMoon.io -->
<!DOCTYPE svg PUBLIC "-//W3C//DTD SVG 1.1//EN" "http://www.w3.org/Graphics/SVG/1.1/DTD/svg11.dtd">
<svg version="1.1" xmlns="http://www.w3.org/2000/svg" xmlns:xlink="http://www.w3.org/1999/xlink" width="17" height="17" viewBox="0 0 17 17">
<g>
</g>
	<path d="M16 1.026h-11.008c-2.181 0-3.955 1.774-3.955 3.955s1.774 3.954 3.955 3.954h3.008v7.065h1v-13.974h2.015v13.974h1v-13.974h3.985v-1zM8 7.936h-3.008c-1.63 0-2.955-1.325-2.955-2.954 0-1.63 1.325-2.955 2.955-2.955h3.008v5.909z" fill="#000000" />
</svg>

<svg xmlns="http://www.w3.org/2000/svg" width="17" height="17" viewBox="0 0 17 17"><path d="M16 1.026H4.992c-2.181 0-3.955 1.774-3.955 3.955s1.774 3.954 3.955 3.954H8V16h1V2.026h2.015V16h1V2.026H16v-1zm-8 6.91H4.992a2.957 2.957 0 01-2.955-2.954 2.958 2.958 0 012.955-2.955H8v5.909z"/></svg>
